flaticon/design/perspective.svg

<svg xmlns="http://www.w3.org/2000/svg" width="32" height="32" viewBox="0 0 24 24">
    <path d="M 21.800781 16.039062 L 21.800781 7.960938 C 22.710938 7.773438 23.398438 6.964844 23.398438 6 C 23.398438 4.898438 22.503906 4 21.398438 4 C 20.582031 4 19.878906 4.496094 19.570312 5.203125 L 4.597656 2.015625 C 4.597656 2.011719 4.601562 2.003906 4.601562 2 C 4.601562 0.898438 3.703125 0 2.601562 0 C 1.496094 0 0.601562 0.898438 0.601562 2 C 0.601562 2.964844 1.289062 3.773438 2.199219 3.960938 L 2.199219 20.039062 C 1.289062 20.226562 0.601562 21.035156 0.601562 22 C 0.601562 23.101562 1.496094 24 2.601562 24 C 3.703125 24 4.601562 23.101562 4.601562 22 C 4.601562 21.996094 4.597656 21.988281 4.597656 21.984375 L 19.570312 18.796875 C 19.878906 19.503906 20.582031 20 21.398438 20 C 22.503906 20 23.398438 19.101562 23.398438 18 C 23.398438 17.035156 22.710938 16.226562 21.800781 16.039062 Z M 21.398438 4.800781 C 22.0625 4.800781 22.601562 5.339844 22.601562 6 C 22.601562 6.660156 22.0625 7.199219 21.398438 7.199219 C 20.738281 7.199219 20.199219 6.660156 20.199219 6 C 20.199219 5.917969 20.207031 5.835938 20.226562 5.75 C 20.34375 5.207031 20.824219 4.800781 21.398438 4.800781 Z M 1.398438 2 C 1.398438 1.339844 1.9375 0.800781 2.601562 0.800781 C 3.261719 0.800781 3.800781 1.339844 3.800781 2 C 3.800781 2.078125 3.792969 2.15625 3.777344 2.234375 L 3.773438 2.25 C 3.773438 2.257812 3.769531 2.261719 3.765625 2.269531 C 3.753906 2.332031 3.734375 2.394531 3.710938 2.453125 C 3.695312 2.484375 3.679688 2.511719 3.664062 2.539062 C 3.648438 2.574219 3.628906 2.613281 3.609375 2.644531 C 3.589844 2.675781 3.566406 2.703125 3.542969 2.730469 C 3.523438 2.761719 3.5 2.789062 3.476562 2.816406 C 3.449219 2.84375 3.421875 2.867188 3.394531 2.890625 C 3.371094 2.914062 3.34375 2.9375 3.316406 2.957031 C 3.285156 2.980469 3.253906 3 3.222656 3.019531 C 3.191406 3.039062 3.160156 3.054688 3.128906 3.070312 C 3.097656 3.085938 3.066406 3.101562 3.03125 3.117188 C 2.992188 3.132812 2.953125 3.144531 2.910156 3.152344 C 2.882812 3.160156 2.851562 3.171875 2.824219 3.175781 C 2.75 3.191406 2.675781 3.199219 2.601562 3.199219 C 1.9375 3.199219 1.398438 2.660156 1.398438 2 Z M 2.601562 23.199219 C 1.9375 23.199219 1.398438 22.660156 1.398438 22 C 1.398438 21.339844 1.9375 20.800781 2.601562 20.800781 C 2.675781 20.800781 2.75 20.808594 2.824219 20.824219 C 2.855469 20.828125 2.882812 20.839844 2.910156 20.847656 C 2.953125 20.855469 2.992188 20.867188 3.03125 20.882812 C 3.066406 20.894531 3.097656 20.914062 3.128906 20.929688 C 3.160156 20.945312 3.191406 20.960938 3.222656 20.980469 C 3.253906 21 3.285156 21.019531 3.316406 21.042969 C 3.34375 21.0625 3.371094 21.085938 3.394531 21.109375 C 3.421875 21.132812 3.449219 21.15625 3.476562 21.1875 C 3.5 21.210938 3.523438 21.238281 3.542969 21.269531 C 3.566406 21.296875 3.589844 21.324219 3.609375 21.355469 C 3.628906 21.386719 3.648438 21.421875 3.664062 21.460938 C 3.679688 21.488281 3.695312 21.515625 3.710938 21.546875 C 3.734375 21.605469 3.753906 21.667969 3.765625 21.730469 C 3.769531 21.738281 3.769531 21.742188 3.773438 21.75 L 3.777344 21.765625 C 3.792969 21.84375 3.800781 21.921875 3.800781 22 C 3.800781 22.660156 3.261719 23.199219 2.601562 23.199219 Z M 19.398438 18.015625 L 4.433594 21.203125 C 4.390625 21.105469 4.339844 21.011719 4.28125 20.925781 C 4.261719 20.898438 4.246094 20.871094 4.226562 20.84375 C 4.164062 20.757812 4.101562 20.679688 4.027344 20.605469 C 4.007812 20.582031 3.984375 20.566406 3.964844 20.542969 C 3.902344 20.488281 3.839844 20.4375 3.773438 20.386719 C 3.742188 20.363281 3.714844 20.34375 3.683594 20.324219 C 3.597656 20.269531 3.507812 20.21875 3.417969 20.179688 C 3.386719 20.164062 3.355469 20.152344 3.320312 20.140625 C 3.226562 20.101562 3.128906 20.070312 3.027344 20.046875 C 3.019531 20.046875 3.011719 20.042969 3 20.039062 L 3 3.960938 C 3.011719 3.957031 3.019531 3.953125 3.027344 3.953125 C 3.128906 3.929688 3.226562 3.898438 3.320312 3.859375 C 3.355469 3.847656 3.386719 3.835938 3.417969 3.820312 C 3.511719 3.78125 3.597656 3.730469 3.683594 3.675781 C 3.714844 3.65625 3.742188 3.636719 3.773438 3.613281 C 3.839844 3.5625 3.902344 3.511719 3.964844 3.457031 C 3.984375 3.433594 4.007812 3.417969 4.027344 3.394531 C 4.101562 3.320312 4.164062 3.242188 4.226562 3.15625 C 4.246094 3.128906 4.261719 3.101562 4.28125 3.074219 C 4.339844 2.988281 4.390625 2.894531 4.433594 2.796875 L 19.398438 5.984375 C 19.398438 5.988281 19.398438 5.996094 19.398438 6 C 19.398438 6.128906 19.414062 6.257812 19.4375 6.378906 C 19.445312 6.421875 19.460938 6.457031 19.46875 6.496094 C 19.492188 6.578125 19.515625 6.660156 19.542969 6.734375 C 19.5625 6.78125 19.582031 6.820312 19.605469 6.863281 C 19.636719 6.929688 19.671875 6.996094 19.710938 7.0625 C 19.738281 7.101562 19.765625 7.140625 19.792969 7.179688 C 19.839844 7.242188 19.882812 7.296875 19.933594 7.351562 C 19.96875 7.386719 20 7.421875 20.035156 7.453125 C 20.089844 7.503906 20.148438 7.550781 20.207031 7.597656 C 20.246094 7.625 20.28125 7.652344 20.320312 7.679688 C 20.390625 7.722656 20.460938 7.757812 20.535156 7.792969 C 20.570312 7.8125 20.605469 7.835938 20.644531 7.847656 C 20.75 7.894531 20.863281 7.929688 20.976562 7.953125 C 20.984375 7.953125 20.992188 7.957031 21 7.960938 L 21 16.039062 C 20.992188 16.042969 20.984375 16.046875 20.976562 16.046875 C 20.863281 16.070312 20.75 16.105469 20.644531 16.152344 C 20.605469 16.167969 20.570312 16.1875 20.535156 16.207031 C 20.460938 16.242188 20.390625 16.277344 20.320312 16.320312 C 20.28125 16.347656 20.246094 16.375 20.207031 16.402344 C 20.148438 16.449219 20.089844 16.496094 20.035156 16.546875 C 20 16.578125 19.96875 16.613281 19.933594 16.648438 C 19.882812 16.703125 19.839844 16.757812 19.792969 16.820312 C 19.765625 16.859375 19.738281 16.898438 19.710938 16.9375 C 19.671875 17.003906 19.636719 17.070312 19.605469 17.136719 C 19.582031 17.179688 19.5625 17.21875 19.542969 17.265625 C 19.515625 17.339844 19.492188 17.421875 19.46875 17.503906 C 19.460938 17.542969 19.445312 17.578125 19.4375 17.621094 C 19.414062 17.742188 19.398438 17.871094 19.398438 18 C 19.398438 18.003906 19.398438 18.011719 19.398438 18.015625 Z M 21.398438 19.199219 C 20.824219 19.199219 20.34375 18.792969 20.226562 18.25 C 20.207031 18.164062 20.199219 18.082031 20.199219 18 C 20.199219 17.339844 20.738281 16.800781 21.398438 16.800781 C 22.0625 16.800781 22.601562 17.339844 22.601562 18 C 22.601562 18.660156 22.0625 19.199219 21.398438 19.199219 Z M 21.398438 19.199219"/>
</svg>

<svg xmlns="http://www.w3.org/2000/svg" width="32" height="32" viewBox="0 0 24 24">
    <path d="M21.8 16.04V7.96A2.001 2.001 0 0 0 21.399 4c-.816 0-1.52.496-1.828 1.203L4.598 2.016 4.602 2c0-1.102-.899-2-2-2a2.001 2.001 0 0 0-.403 3.96v16.08A2.001 2.001 0 0 0 2.601 24c1.102 0 2-.898 2-2l-.003-.016 14.972-3.187A1.998 1.998 0 0 0 21.398 20a2.001 2.001 0 0 0 .403-3.96zM21.399 4.8c.665 0 1.204.54 1.204 1.2a1.202 1.202 0 1 1-2.375-.25c.117-.543.597-.95 1.171-.95zm-20-2.8a1.202 1.202 0 1 1 2.379.234l-.004.016c0 .008-.003.012-.007.02a.993.993 0 0 1-.055.183 1.706 1.706 0 0 1-.047.086.894.894 0 0 1-.055.106c-.02.03-.043.058-.066.085-.02.032-.043.06-.066.086-.028.028-.055.051-.082.075a.637.637 0 0 1-.079.066c-.03.023-.062.043-.093.063-.032.02-.063.035-.094.05a2.313 2.313 0 0 1-.098.047.619.619 0 0 1-.12.035c-.028.008-.06.02-.087.024a1.078 1.078 0 0 1-.222.023C1.938 3.2 1.398 2.66 1.398 2zm1.204 21.2c-.664 0-1.204-.54-1.204-1.2 0-.66.54-1.2 1.204-1.2.074 0 .148.009.222.024.031.004.059.016.086.024.043.007.082.02.121.035.035.012.067.031.098.047a1.103 1.103 0 0 1 .266.18.756.756 0 0 1 .148.16c.023.027.047.054.066.085.02.032.04.067.055.106.016.027.031.055.047.086a.993.993 0 0 1 .055.183c.004.008.004.012.007.02l.004.016A1.202 1.202 0 0 1 2.601 23.2zm16.796-5.184L4.434 21.203a1.73 1.73 0 0 0-.153-.277c-.02-.028-.035-.055-.054-.082a1.951 1.951 0 0 0-.2-.239c-.02-.023-.043-.039-.062-.062a3.703 3.703 0 0 0-.192-.156 1.958 1.958 0 0 0-.453-.246 1.83 1.83 0 0 0-.293-.094c-.007 0-.015-.004-.027-.008V3.961c.012-.004.02-.008.027-.008.102-.023.2-.055.293-.094a1.75 1.75 0 0 0 .453-.246c.067-.05.13-.101.192-.156.02-.023.043-.039.062-.062.075-.075.137-.153.2-.239.02-.027.035-.054.054-.082.059-.086.11-.18.153-.277l14.964 3.187V6c0 .129.016.258.04.379.007.043.023.078.03.117.024.082.048.164.075.238.02.047.039.086.062.13.032.066.067.132.106.199l.082.117c.047.062.09.117.14.172.036.035.067.07.102.101.055.05.113.098.172.145.04.027.074.054.113.082.07.043.14.078.215.113.035.02.07.043.11.055.105.047.218.082.332.105.007 0 .015.004.023.008v8.078a.056.056 0 0 1-.023.008 1.642 1.642 0 0 0-.442.16c-.074.035-.144.07-.215.113-.039.028-.074.055-.113.082-.059.047-.117.094-.172.145-.035.031-.066.066-.101.101-.051.055-.094.11-.141.172l-.082.117c-.04.067-.074.133-.106.2a1.311 1.311 0 0 0-.062.129c-.027.074-.05.156-.074.238-.008.039-.024.074-.032.117a2.01 2.01 0 0 0-.039.379v.016zm2 1.183A1.201 1.201 0 0 1 20.2 18a1.202 1.202 0 0 1 2.403 0c0 .66-.54 1.2-1.204 1.2zm0 0"/>
</svg>
